X:160
T:Maguire and Patterson
M:3/4
L:1/8
Q:200
K:D
(3A,DF|A4 AA|A2 G2 F2|E2 D2 E2|F4 (3A,DF|\
A4 AA|A2 G2 F2|E2 D2 E2| D3 z DE|
F4 G<F| F4 G<F|F4 G<F| F4 E2|\
D2 E2 F2| E4 D2|((D6|1 D4) (3A,DF:|2 D4) (3ABc||
|d4 d2|c2 B2 A2|A2 d2 A2| B4 (3ABc|\
|A4 AA|A2 G2 F2|E2 D2 E2|E4 E2|\
D2 E2 F2|E4 D2| |((D6|1 D4) (3ABc :|2 D4) (3A,DF ||
